X: 938
T: Stubb
C:Ricky Skaggs and Bruce Hornsby
B: jims roots
M:4/4
L:1/8
Q: 1/4=100
K:G
V:1 
|:"D"Jc3B A2AB | cBcd edd2 | Jc3B A2AB | ccAG "G"FD D2 |
"D"Jc3B A2AB | cBcd eddg | fdcA GFDB, | CDEF "G"G2z2 :|
|:"D"gfga- a2 gf | gfdc- c2 eg | fda2 gfdB | cAFD "G"[G2G,]z2 |
"D"gfga- a2 gf | gfdc- c2 eg | fdcA GFDB, | CDEF "G"G4:|
JG4JG4-|G4z4 || [M:2/4]z4:|
% abcbook-tune_id 6298c28747def71e9a5b2ebf


% abcbook-boost 0
% abcbook-tablature 
% abcbook-transpose 
% abcbook-lastupdated 1654178441001
% abcbook-soundfonts 
% abcbook-repeats 1


